X:18026
T:Road to the Isles
T:Bens of Jura
R:March
C:John McLellan, 1891
O:Scotland; Dunoon
Z:Paul Hardy's Session Tunebook 2015 (see www.paulhardy.net). Creative Commons cc by-nc-sa licenced.
M:4/4
L:1/8
Q:1/4=110
K:D
A>d|"D"f4 a>f e>f|"G"d>e d>c B2 d>c|B<G B>c "D"d>e f<a|"Em"e4- "A7"e2A>d|
"D"f4 a>f e>f|"G"d>e d>c B2 g2|"D"f<a f>d "A7"A>c e>c|"D"d2-"G"d2-"D"d2:|
|:f>g|"D"a>A A2 f>A A2|"G"d>e d>c B2 d>c|B<G B>c "D"d>e f<a|"Em"e4- "A7"e2f>g|
"D"a>A A2 f>A A2|"G"d>e d>c B2 g2|"D"f<a f>d "A7"A>c e>c|"D"d2-"G"d2-"D"d2:|

